!!!OTL: Pochwalmy Pana w liczbie swietych
**kern
*staff1
=1-
*clefC3
*k[b-]
1G
2.B-/
4c\
=2
2d\
2e-\
1d
=3
2G/
2g\
2d\
2f\
=4
2g\
2c\
1d
!!linebreak:original
=5
2r
2d\
2.c\
4B-/
=6
2A/
2G/
1A
=7
2G/
1g
2f\
=8
2e-\
2c\
1d
1G
=9
!!linebreak:original
2r
2G/
2G/
2d\
=10
4G/
4A/
4B-/
4c\
1d
=11
!!linebreak:original
2r
2d\
2.e-\
4d\
2c\
2B-/
=12
2f\
2F/
1B-
=13
2r
2G/
2d\
2e-\
=14
1d
0G
==
*-
!!title: @{OTL}, @{GTL}, ed. @{ENC}
!!!pag:
!!!GTL: Hymnbook D
!!!EFL: 
!!!YEM: Creative Commons CC/BY/NC/SA 4.0
!!!ENC: Marcin Konik
!!!END: 2015-0m-dd
!!!EED: Marcin Konik
!!!EEV: 
!!!ONB: Encoded in vim by Marcin Konik
!!!CharacterEncoding: utf-8
!!!RDF**kern: l=long note in original notation
!!!RDF**kern: i=editorial accidental
!!muse2ps: z14jc180F
!!!COM: Anonim
!!!CDT: [?]
!!!TXO: Polish
!!!ODT: 
!!!GTL: Hymnbook D
!!!ARL: Opactwo św. Wojciecha, Staniątki 
!!!voices:	1
